X:1
T:Sir Reginald MacDonald
L:1/8
M:2/2
I:linebreak $
K:A
V:1 treble 
V:1
 f |"A" edcB A2 Ac |"Bm" B2 Bc"E7" defa |"A" edcB"F#m" A2 Ac |"E7" BEGB"A" A3 :| f | %6
"A" eAcA eAcA |$"Bm" B2 Bc"E7" defa |"A" eAcA eAcA |"E7" BEGB"A" A3 |] f |"A" eAcA eAcA | %12
"Bm" B2 Bc"E7" defg |$"D" aefd"A" c[EA]Ac |"E7" BEGB"A" A3 |] %15
